packages/web-icons/svgs/check_4.svg

<svg viewBox="0 0 49 49" xmlns="http://www.w3.org/2000/svg" class="ridi_icon"><path d="M24.1.9C10.8.9.1 11.6.1 24.9s10.7 24 24 24 24-10.7 24-24-10.9-24-24-24zm13.8 18.6l-6.9 8-7.8 8.9c-.2.3-.5.5-.8.8-.6.5-1.4.8-2.3.8h-.5c-.9 0-1.7-.3-2.4-.9-.3-.3-.6-.6-.8-.9l-7.8-8.6-.8-1.1c-1.4-1.5-1.2-4 .3-5.4 1.5-1.4 4-1.2 5.4.3l.8 1.1 5.5 6.1 5.4-6.3 6.8-7.8c1.4-1.5 3.8-1.7 5.4-.3 1.7 1.4 1.8 3.8.5 5.3z"/></svg>

<?xml version="1.0" encoding="UTF-8"?>
<svg width="49px" height="49px" viewBox="0 0 49 49" version="1.1" xmlns="http://www.w3.org/2000/svg">
  <!-- Generator: Sketch 41.2 (35397) - http://www.bohemiancoding.com/sketch -->
  <title>check_4</title>
  <desc>Created with Sketch.</desc>
  <defs></defs>
  <g id="Page-1" stroke="none" stroke-width="1" fill="none" fill-rule="evenodd">
    <g id="check_4" fill="#444444">
      <g id="Layer_1">
        <path d="M24.1,0.9 C10.8,0.9 0.1,11.6 0.1,24.9 C0.1,38.2 10.8,48.9 24.1,48.9 C37.4,48.9 48.1,38.2 48.1,24.9 C48.1,11.6 37.2,0.9 24.1,0.9 Z M37.9,19.5 L31,27.5 L23.2,36.4 C23,36.7 22.7,36.9 22.4,37.2 C21.8,37.7 21,38 20.1,38 L19.6,38 L19.6,38 C18.7,38 17.9,37.7 17.2,37.1 C16.9,36.8 16.6,36.5 16.4,36.2 L8.6,27.6 L7.8,26.5 C6.4,25 6.6,22.5 8.1,21.1 C9.6,19.7 12.1,19.9 13.5,21.4 L14.3,22.5 L19.8,28.6 L25.2,22.3 L32,14.5 C33.4,13 35.8,12.8 37.4,14.2 C39.1,15.6 39.2,18 37.9,19.5 Z" id="Shape"></path>
      </g>
    </g>
  </g>
</svg>
